icons/mobile/24/svg/shield-slash-multicolor-24.svg

<svg width="24" height="24" viewBox="0 0 24 24" fill="none" xmlns="http://www.w3.org/2000/svg">
<path d="M8.02543 6.79007C7.36943 7.12307 6.69474 7.43964 6.01274 7.72464C5.30779 8.01866 4.89902 8.79823 5.04301 9.5762L5.61332 12.6729C5.8403 13.9028 6.23797 14.9568 6.79789 15.8047C7.93389 17.5257 9.48043 19.0207 11.1504 20.0147C11.6744 20.3265 12.3152 20.3303 12.8291 20.0274C14.4771 19.0504 15.9979 17.5845 17.1319 15.8965L18.3789 17.1436C17.1239 18.9256 15.4938 20.4793 13.7198 21.5313C13.1918 21.8432 12.5988 22 12.0039 22C11.4 22 10.7949 21.8386 10.2539 21.5166C8.36101 20.3906 6.61494 18.7036 5.33598 16.7666C4.6481 15.7217 4.16163 14.4511 3.89164 12.9893L3.32231 9.89163C3.03047 8.30779 3.87912 6.71743 5.33891 6.1094C5.80291 5.9164 6.25505 5.69168 6.70805 5.47268L8.02543 6.79007Z" fill="black"/>
<path d="M10.044 3.59182C11.237 2.79685 12.7627 2.80347 13.9317 3.60745C14.6546 4.10343 15.4062 4.56358 16.1631 4.97757C16.9741 5.42157 17.8105 5.8229 18.6475 6.1719C20.1163 6.78401 20.9688 8.37331 20.6758 9.95218L20.1104 13C19.9164 14.047 19.6054 14.994 19.1914 15.834L17.8653 14.5088C18.0882 13.9519 18.2657 13.3446 18.3887 12.6817L18.9551 9.63284C19.099 8.85989 18.6866 8.08509 17.9747 7.78811C17.0808 7.41615 16.1892 6.98664 15.3243 6.5137C14.5153 6.07174 13.7134 5.57978 12.9414 5.04983C12.6526 4.85192 12.3173 4.75206 11.9825 4.75198C11.6475 4.75198 11.3097 4.84988 11.0137 5.04788C10.491 5.39668 9.94912 5.72616 9.40043 6.043L8.11332 4.75589C8.77224 4.38993 9.42207 4.00577 10.044 3.59182Z" fill="black"/>
<path d="M2.25579 2.25579C2.5975 1.91408 3.15237 1.91408 3.49407 2.25579L21.7441 20.5058C22.0858 20.8475 22.0858 21.4024 21.7441 21.7441C21.4024 22.0858 20.8475 22.0858 20.5058 21.7441L2.25579 3.49407C1.91408 3.15237 1.91408 2.5975 2.25579 2.25579Z" fill="#C52D4F"/>
</svg>

<!-- This Source Code Form is subject to the terms of the Mozilla Public
   - License, v. 2.0. If a copy of the MPL was not distributed with this
   - file, You can obtain one at http://mozilla.org/MPL/2.0/. -->
<svg xmlns="http://www.w3.org/2000/svg" width="24" height="24" fill="none" viewBox="0 0 24 24">
    <path fill="#000" d="M8.025 6.79c-.656.333-1.33.65-2.012.935-.705.294-1.114 1.073-.97 1.851l.57 3.097c.227 1.23.625 2.284 1.185 3.132 1.136 1.72 2.682 3.216 4.352 4.21a1.64 1.64 0 0 0 1.68.012c1.647-.977 3.168-2.443 4.302-4.13l1.247 1.247c-1.255 1.782-2.885 3.335-4.66 4.387a3.37 3.37 0 0 1-1.715.469 3.4 3.4 0 0 1-1.75-.483c-1.893-1.126-3.64-2.813-4.918-4.75-.688-1.045-1.174-2.316-1.444-3.778l-.57-3.097C3.03 8.308 3.88 6.717 5.34 6.109c.464-.193.916-.417 1.369-.636zm2.019-3.198a3.45 3.45 0 0 1 3.888.015 26 26 0 0 0 4.716 2.565c1.468.612 2.32 2.201 2.028 3.78L20.11 13a11 11 0 0 1-.919 2.834l-1.326-1.325a9.6 9.6 0 0 0 .524-1.827l.566-3.05a1.67 1.67 0 0 0-.98-1.844A28 28 0 0 1 12.94 5.05a1.7 1.7 0 0 0-.959-.298c-.334 0-.672.098-.968.296-.523.349-1.065.678-1.614.995L8.113 4.756c.66-.366 1.31-.75 1.931-1.164" />
    <path fill="#c52d4f" d="M2.256 2.256a.876.876 0 0 1 1.238 0l18.25 18.25a.876.876 0 0 1-1.238 1.238L2.256 3.494a.876.876 0 0 1 0-1.238" />
</svg>
